X:1

T:Road to Hollyhill, The

M:3/4

L:1/8

R:Air

N:”Slow”

S:O’Neill – Music of Ireland (1903), No. 347

Z:AK/Fiddler’s Companion

K:Amix

A AB|c2 ec/d/ ee|f2 dc/d/ ea|e2 d>B AA|(G2 G/)A/B/G/ AB|c2 dc/d/ ef|

g>f ed ea|e2 d>B AA|A3||e ef/g/|a>g fe fg|f>e dc/d/ ea|e2 d>B AA|

G>A B/A/G/B/ AA|c2 dc/d/ ef|g>f ed ea|c2 d>B AA|A3||

                       

ROAD TO HOULL, DA. See "Rodd to Houll."

                       

ROAD TO INDIA, THE. Canadian, Reel. Canada, Prince Edward Island. D Major. Standard tuning. AABB. Perlman (1996) identifies this tune as a simplified version of a hornpipe called “My Heather Hills” and “Jock Tamson’s.” Souce for notated version: Jimmy Banks (b. 1904, Poplar Point, Central Kings County, Prince Edward Island) [Perlman]. Perlman (The Fiddle Music of Prince Edward Island), 1996; pg. 158.

                       

ROAD TO JENKINS. Old-Time, Breakdown. A Major/Mixolydian. Standard tuning. AABB. Source for notated version: Joe Greene [Phillips]. Phillips (Traditional American Fiddle Tunes, vol. 1), 1994; pg. 199.

                       

ROAD TO KILMALLOCK. Irish, Reel. G Major. Standard tuning. AB. Learned by Joyce as a child in Co. Limerick, c. 1840. There exists famous ruins of an ancient Dominican frairy at Killmallock (see note for “Ruins of Killmallock” for more). Joyce (Old Irish Folk Music and Songs), 1909; No. 74, pg. 40.

